Avidclan_Website/assets/images/icons/optional-static-typing-ic.svg

<?xml version="1.0" encoding="utf-8"?>
<!-- Generator: Adobe Illustrator 24.1.1, SVG Export Plug-In . SVG Version: 6.00 Build 0)  -->
<svg version="1.1" id="Layer_1" xmlns="http://www.w3.org/2000/svg" xmlns:xlink="http://www.w3.org/1999/xlink" x="0px" y="0px"
	 viewBox="0 0 394.7 423.6" style="enable-background:new 0 0 394.7 423.6;" xml:space="preserve">
<style type="text/css">
	.st0{fill:#007AFB;}
</style>
<g>
	<path class="st0" d="M376.2,0H18.5C8.3,0,0,8.3,0,18.5v386.6c0,10.2,8.3,18.5,18.5,18.5h357.7c10.2,0,18.5-8.3,18.5-18.5V18.5
		C394.7,8.3,386.4,0,376.2,0z M372.5,401.4H22.2V22.2h350.3V401.4z"/>
	<path class="st0" d="M61.7,96.2h264.5c6.1,0,11.1-5,11.1-11.1c0-6.1-5-11.1-11.1-11.1L61.7,74c-6.1,0-11.1,5-11.1,11.1
		C50.6,91.2,55.5,96.2,61.7,96.2L61.7,96.2z"/>
	<path class="st0" d="M61.7,170.2h239.9c6.1,0,11.1-5,11.1-11.1s-5-11.1-11.1-11.1l-239.9,0c-6.1,0-11.1,5-11.1,11.1
		C50.6,165.2,55.5,170.2,61.7,170.2L61.7,170.2z"/>
	<path class="st0" d="M61.7,244.2h264.5c6.1,0,11.1-5,11.1-11.1c0-6.1-5-11.1-11.1-11.1l-264.5,0c-6.1,0-11.1,5-11.1,11.1
		C50.6,239.2,55.5,244.2,61.7,244.2L61.7,244.2z"/>
	<path class="st0" d="M61.7,318.2h177.6c6.1,0,11.1-5,11.1-11.1c0-6.1-5-11.1-11.1-11.1l-177.6,0c-6.1,0-11.1,5-11.1,11.1
		C50.6,313.2,55.5,318.2,61.7,318.2L61.7,318.2z"/>
	<path class="st0" d="M295.4,264.5c-6.1,0-11.1,5-11.1,11.1c0,6.1,5,11.1,11.1,11.1h7.7v40.7h-7.7c-6.1,0-11.1,5-11.1,11.1
		c0,6.1,5,11.1,11.1,11.1H333c6.1,0,11.1-5,11.1-11.1c0-6.1-5-11.1-11.1-11.1h-7.7v-40.7h7.7c6.1,0,11.1-5,11.1-11.1
		c0-6.1-5-11.1-11.1-11.1H295.4z"/>
</g>
</svg>

<svg width="395" height="424" viewBox="0 0 395 424" fill="none" xmlns="http://www.w3.org/2000/svg">
<g clip-path="url(#clip0_493_462)">
<path d="M376.2 0H18.5C8.3 0 0 8.3 0 18.5V405.1C0 415.3 8.3 423.6 18.5 423.6H376.2C386.4 423.6 394.7 415.3 394.7 405.1V18.5C394.7 8.3 386.4 0 376.2 0ZM372.5 401.4H22.2V22.2H372.5V401.4Z" fill="#0E53BE"/>
<path d="M61.7 96.2H326.2C332.3 96.2 337.3 91.2 337.3 85.1C337.3 79 332.3 74 326.2 74H61.7C55.6 74 50.6 79 50.6 85.1C50.6 91.2 55.5 96.2 61.7 96.2Z" fill="#0E53BE"/>
<path d="M61.7 170.2H301.6C307.7 170.2 312.7 165.2 312.7 159.1C312.7 153 307.7 148 301.6 148H61.7C55.6 148 50.6 153 50.6 159.1C50.6 165.2 55.5 170.2 61.7 170.2Z" fill="#0E53BE"/>
<path d="M61.7 244.2H326.2C332.3 244.2 337.3 239.2 337.3 233.1C337.3 227 332.3 222 326.2 222H61.7C55.6 222 50.6 227 50.6 233.1C50.6 239.2 55.5 244.2 61.7 244.2Z" fill="#0E53BE"/>
<path d="M61.7 318.2H239.3C245.4 318.2 250.4 313.2 250.4 307.1C250.4 301 245.4 296 239.3 296H61.7C55.6 296 50.6 301 50.6 307.1C50.6 313.2 55.5 318.2 61.7 318.2Z" fill="#0E53BE"/>
<path d="M295.4 264.5C289.3 264.5 284.3 269.5 284.3 275.6C284.3 281.7 289.3 286.7 295.4 286.7H303.1V327.4H295.4C289.3 327.4 284.3 332.4 284.3 338.5C284.3 344.6 289.3 349.6 295.4 349.6H333C339.1 349.6 344.1 344.6 344.1 338.5C344.1 332.4 339.1 327.4 333 327.4H325.3V286.7H333C339.1 286.7 344.1 281.7 344.1 275.6C344.1 269.5 339.1 264.5 333 264.5H295.4Z" fill="#0E53BE"/>
</g>
<defs>
<clipPath id="clip0_493_462">
<rect width="394.7" height="423.6" fill="white"/>
</clipPath>
</defs>
</svg>
